packages/icons/svgs/duotone/Source=launch.svg

<svg width="24" height="24" viewBox="0 0 24 24" fill="none" xmlns="http://www.w3.org/2000/svg">
<path d="M23 10C23 10.5523 22.5523 11 22 11C21.4477 11 21 10.5523 21 10V4.41406L11.707 13.707C11.3165 14.0976 10.6835 14.0976 10.293 13.707C9.90245 13.3165 9.90245 12.6835 10.293 12.293L19.5859 3H14C13.4477 3 13 2.55228 13 2C13 1.44772 13.4477 1 14 1H22C22.5523 1 23 1.44772 23 2V10Z" fill="black" style="fill:black;fill-opacity:1;"/>
<path opacity="0.5" d="M1 20V6C1 5.20435 1.3163 4.44152 1.87891 3.87891C2.44152 3.3163 3.20435 3 4 3H9C9.55229 3 10 3.44772 10 4C10 4.55228 9.55229 5 9 5H4C3.73478 5 3.4805 5.10543 3.29297 5.29297C3.10543 5.4805 3 5.73478 3 6V20C3 20.2652 3.10543 20.5195 3.29297 20.707C3.48051 20.8946 3.73478 21 4 21H18C18.2652 21 18.5195 20.8946 18.707 20.707C18.8946 20.5195 19 20.2652 19 20V15C19 14.4477 19.4477 14 20 14C20.5523 14 21 14.4477 21 15V20C21 20.7957 20.6837 21.5585 20.1211 22.1211C19.5585 22.6837 18.7957 23 18 23H4C3.20435 23 2.44151 22.6837 1.87891 22.1211C1.3163 21.5585 1 20.7957 1 20Z" fill="black" style="fill:black;fill-opacity:1;"/>
</svg>

<svg xmlns="http://www.w3.org/2000/svg" width="24" height="24" viewBox="0 0 24 24"><path d="M23 10a1 1 0 1 1-2 0V4.414l-9.293 9.293a1 1 0 1 1-1.414-1.414L19.586 3H14a1 1 0 1 1 0-2h8a1 1 0 0 1 1 1z"/><path d="M1 20V6a3 3 0 0 1 3-3h5a1 1 0 1 1 0 2H4a1 1 0 0 0-1 1v14a1 1 0 0 0 1 1h14a1 1 0 0 0 1-1v-5a1 1 0 1 1 2 0v5a3 3 0 0 1-3 3H4a3 3 0 0 1-3-3" opacity=".5"/></svg>
